symbols/web/settings_accessibility/materialsymbolsoutlined/settings_accessibility_wght600gradN25_24px.svg

<svg xmlns="http://www.w3.org/2000/svg" height="24" width="24"><path d="M12 4.55q-.9 0-1.525-.65-.625-.65-.625-1.55t.625-1.525Q11.1.2 12 .2q.9 0 1.525.625.625.625.625 1.525 0 .9-.625 1.55T12 4.55ZM8.875 19.125v-11.3Q7.4 7.7 5.925 7.475q-1.475-.225-2.9-.625l.6-2.275q1.95.55 4.113.787Q9.9 5.6 12 5.6q2.1 0 4.263-.238 2.162-.237 4.162-.787l.55 2.275q-1.4.4-2.887.625-1.488.225-2.963.35v11.3h-2.3V13.5h-1.65v5.625Zm-1 4.7q-.5 0-.838-.338-.337-.337-.337-.812 0-.475.337-.813.338-.337.838-.337.475 0 .8.337.325.338.325.813 0 .475-.325.812-.325.338-.8.338Zm4.125 0q-.475 0-.8-.338-.325-.337-.325-.812 0-.475.325-.813.325-.337.8-.337.475 0 .812.337.338.338.338.813 0 .475-.338.812-.337.338-.812.338Zm4.175 0q-.5 0-.825-.338-.325-.337-.325-.812 0-.475.325-.813.325-.337.825-.337.475 0 .8.337.325.338.325.813 0 .475-.325.812-.325.338-.8.338Z"/></svg>

<svg xmlns="http://www.w3.org/2000/svg" height="24" width="24"><path d="M12 4.55Q11.1 4.55 10.475 3.9Q9.85 3.25 9.85 2.35Q9.85 1.45 10.475 0.825Q11.1 0.2 12 0.2Q12.9 0.2 13.525 0.825Q14.15 1.45 14.15 2.35Q14.15 3.25 13.525 3.9Q12.9 4.55 12 4.55ZM8.875 19.125V7.825Q7.4 7.7 5.925 7.475Q4.45 7.25 3.025 6.85L3.625 4.575Q5.575 5.125 7.738 5.362Q9.9 5.6 12 5.6Q14.1 5.6 16.263 5.362Q18.425 5.125 20.425 4.575L20.975 6.85Q19.575 7.25 18.088 7.475Q16.6 7.7 15.125 7.825V19.125H12.825V13.5H11.175V19.125ZM7.875 23.825Q7.375 23.825 7.037 23.487Q6.7 23.15 6.7 22.675Q6.7 22.2 7.037 21.862Q7.375 21.525 7.875 21.525Q8.35 21.525 8.675 21.862Q9 22.2 9 22.675Q9 23.15 8.675 23.487Q8.35 23.825 7.875 23.825ZM12 23.825Q11.525 23.825 11.2 23.487Q10.875 23.15 10.875 22.675Q10.875 22.2 11.2 21.862Q11.525 21.525 12 21.525Q12.475 21.525 12.812 21.862Q13.15 22.2 13.15 22.675Q13.15 23.15 12.812 23.487Q12.475 23.825 12 23.825ZM16.175 23.825Q15.675 23.825 15.35 23.487Q15.025 23.15 15.025 22.675Q15.025 22.2 15.35 21.862Q15.675 21.525 16.175 21.525Q16.65 21.525 16.975 21.862Q17.3 22.2 17.3 22.675Q17.3 23.15 16.975 23.487Q16.65 23.825 16.175 23.825Z"/></svg>
